assets/icons/emergency_yes_colorful.svg

<svg fill="none" height="25" viewBox="0 0 25 25" width="25"><path clip-rule="evenodd" d="m12.5 1.5a.5.5 0 0 1 .5.5v3a.5.5 0 0 1 -1 0v-3a.5.5 0 0 1 .5-.5zm9.354 3.146a.5.5 0 0 0 -.708 0l-2 2a.5.5 0 0 0 .708.708l2-2a.5.5 0 0 0 0-.708zm-12.554 1.854c-1.322 0-2.382 1.211-2.498 2.585v.006l-.77 10.453a2.508 2.508 0 0 0 -2.032 2.456v.5a1 1 0 0 0 .284.716 1 1 0 0 0 .716.284h15a1 1 0 0 0 .716-.284 1 1 0 0 0 .284-.716v-.5a2.508 2.508 0 0 0 -2.032-2.456l-.77-10.453v-.006c-.116-1.374-1.176-2.585-2.498-2.585zm8.662 13-.76-10.333c-.085-.988-.824-1.667-1.502-1.667h-6.4c-.678 0-1.417.679-1.502 1.667l-.76 10.333h4.962v-1.5a.5.5 0 0 1 1 0v1.5zm6.038-6h-2.5a.5.5 0 0 1 0-1h2.5a.5.5 0 0 1 0 1zm-20.146-8.854a.5.5 0 1 0 -.708.708l2 2a.5.5 0 1 0 .708-.708zm-3.354 7.854a.5.5 0 0 1 .5-.5h2.5a.5.5 0 0 1 0 1h-2.5a.5.5 0 0 1 -.5-.5zm4.5 9.5c0-.824.676-1.5 1.5-1.5h12c.824 0 1.5.676 1.5 1.5v.5h-15z" fill="#18303f" fill-rule="evenodd"/><path d="m12.5 18c1.1 0 2-.9 2-2s-.9-2-2-2-2 .9-2 2 .9 2 2 2z" fill="#f28102"/></svg>

<svg width="25" height="25" viewBox="0 0 25 25" fill="none"><g id="emergency_yes_colorful"><path fill-rule="evenodd" clip-rule="evenodd" d="M12.5 1.5a.5.5 0 0 1 .5.5v3a.5.5 0 0 1-1 0V2a.5.5 0 0 1 .5-.5Zm9.354 3.146a.5.5 0 0 0-.708 0l-2 2a.5.5 0 0 0 .708.708l2-2a.5.5 0 0 0 0-.708ZM9.3 6.5c-1.322 0-2.382 1.211-2.498 2.585v.006l-.77 10.453A2.508 2.508 0 0 0 4 22v.5a1 1 0 0 0 .284.716A1 1 0 0 0 5 23.5h15a1 1 0 0 0 .716-.284A1 1 0 0 0 21 22.5V22a2.508 2.508 0 0 0-2.032-2.456l-.77-10.453v-.006C18.082 7.711 17.022 6.5 15.7 6.5H9.3Zm8.662 13-.76-10.333C17.117 8.179 16.378 7.5 15.7 7.5H9.3c-.678 0-1.417.679-1.502 1.667L7.038 19.5H12V18a.5.5 0 0 1 1 0v1.5h4.962Zm6.038-6h-2.5a.5.5 0 0 1 0-1H24a.5.5 0 0 1 0 1ZM3.854 4.646a.5.5 0 1 0-.708.708l2 2a.5.5 0 1 0 .708-.708l-2-2ZM.5 12.5A.5.5 0 0 1 1 12h2.5a.5.5 0 0 1 0 1H1a.5.5 0 0 1-.5-.5ZM5 22c0-.824.676-1.5 1.5-1.5h12c.824 0 1.5.676 1.5 1.5v.5H5V22Z" fill="#18303F" yggColor="iconDefault"/><path d="M12.5 18c1.1 0 2-.9 2-2s-.9-2-2-2-2 .9-2 2 .9 2 2 2Z" fill="#F28102" yggColor="backgroundWarningDefault"/></g></svg>
